src/next/cmd/sc_glueescapedirectiontop.svg

<svg height="16" width="16" xmlns="http://www.w3.org/2000/svg" xmlns:xlink="http://www.w3.org/1999/xlink"><linearGradient id="a" gradientTransform="matrix(.06477706 0 0 .1431311 -68.204115 -54.65389)" gradientUnits="userSpaceOnUse" x1="399.77466" x2="399.77466" y1="1164.6696" y2="549.06134"><stop offset="0" stop-color="#a7a7a9"/><stop offset=".5" stop-color="#7d7d83"/><stop offset="1" stop-color="#aaaab1"/></linearGradient><linearGradient id="b" gradientTransform="matrix(.5000001 0 0 1.0000001 -64.000001 -132)" gradientUnits="userSpaceOnUse" x1="-63.999985" x2="124.09152" y1="135.99998" y2="27.999992"><stop offset="0" stop-color="#fff"/><stop offset=".42597079" stop-color="#fff"/><stop offset=".5892781" stop-color="#f1f1f1"/><stop offset=".80219781" stop-color="#eaeaea"/><stop offset="1" stop-color="#dfdfdf"/></linearGradient><linearGradient id="c" gradientTransform="matrix(1.9227921 0 0 2.0000003 -98.656196 -16)" gradientUnits="userSpaceOnUse" x1="102.31124" x2="74.330322" y1="-5.830213" y2="32"><stop offset="0" stop-color="#fff"/><stop offset="1" stop-color="#fff" stop-opacity="0"/></linearGradient><linearGradient id="d" gradientTransform="matrix(.540151 .540151 .48613592 -.48613592 117.29919 30.671584)" gradientUnits="userSpaceOnUse" x1="-21.213205" x2="48.161743" y1="-80.024391" y2="-154.92334"><stop offset="0" stop-color="#0968ef"/><stop offset="1" stop-color="#aecffc"/></linearGradient><g transform="scale(.125)"><rect fill="url(#a)" height="112" rx="3.632653" transform="rotate(-90)" width="112" x="-120" y="8"/><rect fill="url(#b)" fill-rule="evenodd" height="96" rx="1.6" transform="matrix(0 -1 -1 0 0 0)" width="96" x="-112" y="-112"/><path d="m77.279287 16c-20.542276 18.856164-39.798762 39.251232-51.795211 64h52.335997c2.931239-23.693961 12.081748-45.098312 24.695847-64z" fill="url(#c)" fill-rule="evenodd"/><path d="m66.634766 60.115326c-1.326544 0-2.424904-.93158-2.6875-2.17773h-.002v-.004c-.03841-.18371-.06055-.37292-.06055-.56836v-2.11524-50.384766-2.11523c0-.19544.02214-.38466.06055-.56836v-.004h.002c.262596-1.24606 1.360956-2.17764 2.6875-2.17764h2.5c1.323068 0 2.421211.92673 2.6875 2.16797l.123046.006.02539 17.97071h.029298l-.013672 9.912052.013672 9.914064h-.0293l-.02539 17.9707-.123046.006c-.266289 1.24113-1.364432 2.16787-2.6875 2.16787z" fill="#bf0000"/><path d="m46.939453 35.205078a6.168783 6.168783 0 0 0 -4.271484 1.806641l-5.65625 5.65625a6.168783 6.168783 0 0 0 0 8.722656l12.609375 12.609375-12.609375 12.609375a6.168783 6.168783 0 0 0 0 8.722656l5.65625 5.65625a6.168783 6.168783 0 0 0 8.722656 0l12.609375-12.609375 12.609375 12.609375a6.168783 6.168783 0 0 0 8.722656 0l5.65625-5.65625a6.168783 6.168783 0 0 0 0-8.722656l-12.609375-12.609375 12.609375-12.609375a6.168783 6.168783 0 0 0 0-8.722656l-5.65625-5.65625a6.168783 6.168783 0 0 0 -8.722656 0l-12.609375 12.609375-12.609375-12.609375a6.168783 6.168783 0 0 0 -4.451172-1.806641z" fill="#fff" transform="translate(4)"/><path d="m84.97056 41.372584-16.970564 16.970562-16.97056-16.970563-5.656856 5.656855 16.970562 16.970563-16.970562 16.970563 5.656856 5.656854 16.97056-16.970563 16.970564 16.970563 5.65686-5.656856-16.970569-16.970561 16.970569-16.970561z" fill="url(#d)"/></g></svg>

<?xml version="1.0" encoding="UTF-8" standalone="no"?>
<!-- Created with Inkscape (http://www.inkscape.org/) -->

<svg
   xmlns:dc="http://purl.org/dc/elements/1.1/"
   xmlns:cc="http://creativecommons.org/ns#"
   xmlns:rdf="http://www.w3.org/1999/02/22-rdf-syntax-ns#"
   xmlns:svg="http://www.w3.org/2000/svg"
   xmlns="http://www.w3.org/2000/svg"
   xmlns:xlink="http://www.w3.org/1999/xlink"
   xmlns:sodipodi="http://sodipodi.sourceforge.net/DTD/sodipodi-0.dtd"
   xmlns:inkscape="http://www.inkscape.org/namespaces/inkscape"
   width="16"
   height="16"
   id="svg3408"
   sodipodi:version="0.32"
   inkscape:version="0.92.4 (unknown)"
   version="1.0"
   sodipodi:docname="sc_glueescapedirectiontop.svg"
   inkscape:output_extension="org.inkscape.output.svgz.inkscape"
   inkscape:export-filename="/home/rizmut/Dokumen/Rizmut/Github/libreoffice-style-karasa-jaga/build/next/cmd/sc_glueescapedirectiontop.png"
   inkscape:export-xdpi="96"
   inkscape:export-ydpi="96">
  <defs
     id="defs3410">
    <linearGradient
       inkscape:collect="always"
       id="linearGradient3310">
      <stop
         style="stop-color:#ffffff;stop-opacity:1;"
         offset="0"
         id="stop3312" />
      <stop
         style="stop-color:#ffffff;stop-opacity:0;"
         offset="1"
         id="stop3314" />
    </linearGradient>
    <linearGradient
       id="linearGradient7422">
      <stop
         id="stop7424"
         offset="0"
         style="stop-color:#b4b4b6;stop-opacity:1;" />
      <stop
         style="stop-color:#9c9ca1;stop-opacity:1;"
         offset="0.5"
         id="stop5348" />
      <stop
         style="stop-color:#cdcdd1;stop-opacity:1;"
         offset="1"
         id="stop7426" />
    </linearGradient>
    <linearGradient
       id="linearGradient2431">
      <stop
         id="stop2433"
         offset="0"
         style="stop-color:#ffffff;stop-opacity:1;" />
      <stop
         style="stop-color:#ffffff;stop-opacity:1;"
         offset="0.42597079"
         id="stop2435" />
      <stop
         style="stop-color:#f1f1f1;stop-opacity:1;"
         offset="0.5892781"
         id="stop2437" />
      <stop
         id="stop2439"
         offset="0.80219781"
         style="stop-color:#eaeaea;stop-opacity:1;" />
      <stop
         id="stop2441"
         offset="1"
         style="stop-color:#dfdfdf;stop-opacity:1;" />
    </linearGradient>
    <linearGradient
       id="linearGradient2399">
      <stop
         style="stop-color:#0968ef;stop-opacity:1;"
         offset="0"
         id="stop2401" />
      <stop
         style="stop-color:#aecffc;stop-opacity:1;"
         offset="1"
         id="stop2403" />
    </linearGradient>
    <linearGradient
       inkscape:collect="always"
       xlink:href="#linearGradient7422-3"
       id="linearGradient3287"
       gradientUnits="userSpaceOnUse"
       gradientTransform="matrix(0.06477706,0,0,0.1431311,-68.204115,-54.65389)"
       x1="399.77466"
       y1="1164.6696"
       x2="399.77466"
       y2="549.06134" />
    <linearGradient
       inkscape:collect="always"
       xlink:href="#linearGradient2431"
       id="linearGradient3289"
       gradientUnits="userSpaceOnUse"
       gradientTransform="matrix(0.5000001,0,0,1.0000001,-64.000001,-132)"
       x1="-63.999985"
       y1="135.99998"
       x2="124.09152"
       y2="27.999992" />
    <linearGradient
       inkscape:collect="always"
       xlink:href="#linearGradient3310"
       id="linearGradient3292"
       gradientUnits="userSpaceOnUse"
       gradientTransform="matrix(1.9227921,0,0,2.0000003,-98.656196,-16)"
       x1="102.31124"
       y1="-5.8302126"
       x2="74.330322"
       y2="32" />
    <linearGradient
       id="linearGradient7422-3">
      <stop
         id="stop7424-6"
         offset="0"
         style="stop-color:#a7a7a9;stop-opacity:1" />
      <stop
         style="stop-color:#7d7d83;stop-opacity:1"
         offset="0.5"
         id="stop5348-7" />
      <stop
         style="stop-color:#aaaab1;stop-opacity:1"
         offset="1"
         id="stop7426-5" />
    </linearGradient>
    <linearGradient
       inkscape:collect="always"
       xlink:href="#linearGradient2399"
       id="linearGradient1552"
       gradientUnits="userSpaceOnUse"
       gradientTransform="matrix(0.540151,0.540151,0.48613592,-0.48613592,117.29919,30.671584)"
       x1="-21.213205"
       y1="-80.024391"
       x2="48.161743"
       y2="-154.92334" />
  </defs>
  <sodipodi:namedview
     id="base"
     pagecolor="#ffffff"
     bordercolor="#666666"
     borderopacity="1.0"
     inkscape:pageopacity="0.0"
     inkscape:pageshadow="2"
     inkscape:zoom="15.381105"
     inkscape:cx="2.4084615"
     inkscape:cy="12.89279"
     inkscape:document-units="px"
     inkscape:current-layer="g657"
     height="128px"
     width="128px"
     showborder="true"
     inkscape:showpageshadow="false"
     showgrid="true"
     inkscape:window-width="1366"
     inkscape:window-height="714"
     inkscape:window-x="0"
     inkscape:window-y="28"
     showguides="true"
     inkscape:guide-bbox="true"
     inkscape:window-maximized="1">
    <inkscape:grid
       id="GridFromPre046Settings"
       type="xygrid"
       originx="0"
       originy="0"
       spacingx="0.5"
       spacingy="0.5"
       color="#0000ff"
       empcolor="#0000ff"
       opacity="0.2"
       empopacity="0.4"
       empspacing="2" />
  </sodipodi:namedview>
  <metadata
     id="metadata3413">
    <rdf:RDF>
      <cc:Work
         rdf:about="">
        <dc:format>image/svg+xml</dc:format>
        <dc:type
           rdf:resource="http://purl.org/dc/dcmitype/StillImage" />
        <dc:title />
      </cc:Work>
    </rdf:RDF>
  </metadata>
  <g
     inkscape:label="Livello 1"
     inkscape:groupmode="layer"
     id="layer1"
     transform="translate(0,-112)">
    <g
       id="g657"
       transform="matrix(0.125,0,0,0.125,0,112)">
      <rect
         transform="rotate(-90)"
         inkscape:export-ydpi="90"
         inkscape:export-xdpi="90"
         inkscape:export-filename="/home/pinheiro/Desktop/mock2.png"
         style="fill:url(#linearGradient3287);fill-opacity:1;fill-rule:nonzero;stroke:none;stroke-width:2;stroke-linecap:round;stroke-linejoin:round;stroke-miterlimit:4;stroke-dasharray:none;stroke-dashoffset:4;stroke-opacity:1"
         id="rect3281"
         width="112"
         height="112"
         x="-120"
         y="8"
         inkscape:r_cx="true"
         inkscape:r_cy="true"
         ry="3.632653"
         rx="3.6326528" />
      <rect
         transform="matrix(0,-1,-1,0,0,0)"
         ry="1.5999999"
         rx="1.5999999"
         y="-112"
         x="-112"
         height="96"
         width="96"
         id="rect3283"
         style="fill:url(#linearGradient3289);fill-opacity:1;fill-rule:evenodd;stroke:none;stroke-width:8;stroke-linecap:round;stroke-linejoin:round;stroke-miterlimit:4;stroke-dasharray:none;stroke-opacity:1" />
      <path
         inkscape:connector-curvature="0"
         id="path3285"
         d="M 77.279287,16 C 56.737011,34.856164 37.480525,55.251232 25.484076,80 H 77.820073 C 80.751312,56.306039 89.901821,34.901688 102.51592,16 Z"
         style="fill:url(#linearGradient3292);fill-opacity:1;fill-rule:evenodd;stroke:none;stroke-width:1.92279208px;stroke-linecap:butt;stroke-linejoin:miter;stroke-opacity:1" />
      <path
         inkscape:connector-curvature="0"
         id="rect264"
         d="m 66.634766,60.115326 c -1.326544,0 -2.424904,-0.93158 -2.6875,-2.17773 h -0.002 v -0.004 c -0.03841,-0.18371 -0.06055,-0.37292 -0.06055,-0.56836 V 55.249996 4.86523 2.75 c 0,-0.19544 0.02214,-0.38466 0.06055,-0.56836 v -0.004 h 0.002 C 64.209862,0.93158 65.308222,0 66.634766,0 h 2.5 c 1.323068,0 2.421211,0.92673 2.6875,2.16797 l 0.123046,0.006 0.02539,17.97071 H 72 L 71.986328,30.056732 72,39.970796 h -0.0293 l -0.02539,17.9707 -0.123046,0.006 c -0.266289,1.24113 -1.364432,2.16787 -2.6875,2.16787 z"
         style="fill:#bf0000;fill-opacity:1;stroke:none;stroke-width:0.74327344" />
      <path
         d="m 46.939453,35.205078 a 6.168783,6.168783 0 0 0 -4.271484,1.806641 l -5.65625,5.65625 a 6.168783,6.168783 0 0 0 0,8.722656 L 49.621094,64 37.011719,76.609375 a 6.168783,6.168783 0 0 0 0,8.722656 l 5.65625,5.65625 a 6.168783,6.168783 0 0 0 8.722656,0 L 64,78.378906 76.609375,90.988281 a 6.168783,6.168783 0 0 0 8.722656,0 l 5.65625,-5.65625 a 6.168783,6.168783 0 0 0 0,-8.722656 L 78.378906,64 90.988281,51.390625 a 6.168783,6.168783 0 0 0 0,-8.722656 l -5.65625,-5.65625 a 6.168783,6.168783 0 0 0 -8.722656,0 L 64,49.621094 51.390625,37.011719 a 6.168783,6.168783 0 0 0 -4.451172,-1.806641 z"
         id="path41994"
         style="fill:#ffffff;fill-opacity:1;stroke:none;stroke-width:0.69832772"
         inkscape:original="M 47.029297 41.373047 L 41.373047 47.029297 L 58.34375 64 L 41.373047 80.970703 L 47.029297 86.626953 L 64 69.65625 L 80.970703 86.626953 L 86.626953 80.970703 L 69.65625 64 L 86.626953 47.029297 L 80.970703 41.373047 L 64 58.34375 L 47.029297 41.373047 z "
         inkscape:radius="6.1681662"
         sodipodi:type="inkscape:offset"
         transform="translate(4)" />
      <path
         sodipodi:nodetypes="ccccccccccccc"
         inkscape:connector-curvature="0"
         id="rect248-6"
         d="M 84.97056,41.372584 67.999996,58.343146 51.029436,41.372583 45.37258,47.029438 62.343142,64.000001 45.37258,80.970564 51.029436,86.627418 67.999996,69.656855 84.97056,86.627418 90.62742,80.970562 73.656851,64.000001 90.62742,47.02944 Z"
         style="fill:url(#linearGradient1552);fill-opacity:1;stroke:none;stroke-width:0.69832772" />
    </g>
  </g>
</svg>
